X: 18
T: Saint-Antoine, Reel
R: reel
M: 4/4
L: 1/8
K: Amaj
e2|"A"a2a(a a)ece | a2a(a a)ece | agfe "F#m"dcBA | "Bm"GABc "E"defg |"A"a2a(a a)ece | a2a(a a)ece |
agfe dcBA | "E"GABG "A"A2 :||:AB|"A"c2c(c c)A  ce|"Bm"dcBA "E"GABc|"Bm"d2d(d d)Bdf |
"E"edcB "A"AEAB |"A"c2c(c c)Ace|"Bm"dcBA "E"GABc| "D"defg "A/C#"afed | "D"cA "E"BG"A"A2 :|

%%newpage
%%textfont * 14
%%begintext justify
%%32 Bar Reels
%%endtext
